X:1
T:This Endris Night
M:3/4
L:1/8
K:G
 d| d2 c B2 d| c2 B A2 c| B2 GG-A B| A3- A2 d| d2 c B2 d| c2 B A2 c|\
 B2 G A2 F| G3- G2||
